X: 12784
T: Feabhra
R: reel
M: 4/4
K: Ddorian
A|(3ABc de d2cA|GEcE DEC2|AGcE dced|cdAG G3G|
(3ABc de d2cA|GEcE DEC2|AGED CDEG|AEGE D4|
Addd edcA|dcAG EDC2|Addd edce|fede d2cB|
Addd edcA|dcAG EDC2|AGED CDEG|AEGE D4|
ADDD EGEG|ADDD EDC2|ADDD EGEG|AEGE D2cB|
ADDD EGEG|ADDD EDC2|AGED CDEG|AEGE D4||

